asset_auto_exported/icn_submotiv_bars.svg

<?xml version="1.0" encoding="UTF-8"?>
<svg width="40px" height="40px" viewBox="0 0 40 40" version="1.1" xmlns="http://www.w3.org/2000/svg" xmlns:xlink="http://www.w3.org/1999/xlink">
    <title>icn_submotiv_bars</title>
    <g id="Maria" stroke="none" stroke-width="1" fill="none" fill-rule="evenodd">
        <g id="backgrounds" transform="translate(-1513.000000, -94.000000)" fill="#FFEFFA">
            <path d="M1464,0 L2016,0 L2016,890 C2016,892.209139 2014.20914,894 2012,894 L1468,894 C1465.79086,894 1464,892.209139 1464,890 L1464,0 L1464,0 Z" id="Rectangle-Copy-7"></path>
        </g>
        <g id="Assets/Global/40/SubmotivBars" fill="#000000" fill-rule="nonzero">
            <g id="-----ICON-LAYERS-----" transform="translate(0.000000, 0.000000)">
                <path d="M19.994,6.03961325e-14 C31.037,6.03961325e-14 39.989,8.952 39.989,19.995 C39.989,31.038 31.037,39.99 19.994,39.99 C8.952,39.99 -3.90798505e-14,31.038 -3.90798505e-14,19.995 C-3.90798505e-14,8.952 8.952,6.03961325e-14 19.994,6.03961325e-14 Z M10.9509,15.9488 C10.5369,15.9488 10.2009,16.2848 10.2009,16.6988 L10.2009,16.6988 L10.2009,27.0018 C10.2009,27.4158 10.5369,27.7518 10.9509,27.7518 C11.3649,27.7518 11.7009,27.4158 11.7009,27.0018 L11.7009,27.0018 L11.7009,16.6988 C11.7009,16.2848 11.3649,15.9488 10.9509,15.9488 Z M16.9509,20.4338 C16.5369,20.4338 16.2009,20.7698 16.2009,21.1838 L16.2009,21.1838 L16.2009,27.0018 C16.2009,27.4158 16.5369,27.7518 16.9509,27.7518 C17.3649,27.7518 17.7009,27.4158 17.7009,27.0018 L17.7009,27.0018 L17.7009,21.1838 C17.7009,20.7698 17.3649,20.4338 16.9509,20.4338 Z M22.9509,12.2648 C22.5369,12.2648 22.2009,12.6008 22.2009,13.0148 L22.2009,13.0148 L22.2009,27.0018 C22.2009,27.4158 22.5369,27.7518 22.9509,27.7518 C23.3649,27.7518 23.7009,27.4158 23.7009,27.0018 L23.7009,27.0018 L23.7009,13.0148 C23.7009,12.6008 23.3649,12.2648 22.9509,12.2648 Z M28.9509,13.7668 C28.5369,13.7668 28.2009,14.1028 28.2009,14.5168 L28.2009,14.5168 L28.2009,27.0018 C28.2009,27.4158 28.5369,27.7518 28.9509,27.7518 C29.3649,27.7518 29.7009,27.4158 29.7009,27.0018 L29.7009,27.0018 L29.7009,14.5168 C29.7009,14.1028 29.3649,13.7668 28.9509,13.7668 Z" id="Combined-Shape"></path>
            </g>
        </g>
    </g>
</svg>

<svg width="40" height="40" viewBox="0 0 40 40" xmlns="http://www.w3.org/2000/svg"><g fill="none" fill-rule="evenodd"><path d="M-49-94h552v890a4 4 0 01-4 4H-45a4 4 0 01-4-4V-94z" fill="#FFEFFA"/><path d="M19.994 0c11.043 0 19.995 8.952 19.995 19.995 0 11.043-8.952 19.995-19.995 19.995C8.952 39.99 0 31.038 0 19.995 0 8.952 8.952 0 19.994 0zm-9.043 15.949a.75.75 0 00-.75.75v10.303a.75.75 0 001.5 0V16.699a.75.75 0 00-.75-.75zm6 4.485a.75.75 0 00-.75.75v5.818a.75.75 0 001.5 0v-5.818a.75.75 0 00-.75-.75zm6-8.17a.75.75 0 00-.75.75v13.988a.75.75 0 001.5 0V13.015a.75.75 0 00-.75-.75zm6 1.503a.75.75 0 00-.75.75v12.485a.75.75 0 001.5 0V14.517a.75.75 0 00-.75-.75z" fill="#000" fill-rule="nonzero"/></g></svg>
